!!!SOCIAL_FUNCTION:	love songs
!!!PDT:	1913
!!!OTL: No_109_I_am_Thinking_of_Her.krn
!!!REG: Great_Lakes
!!!LANG: Non-Tone
!!!LING_GROUP: Algonquin
**kern
*staff1
*clefF4
*k[b-e-a-d-g-c-]
*M3/4
16r
(16e-\
4g-\)
=1
2e-\
4e-\
=2
2B-\
4e-\
=3||
*M2/4
2d-\
=4||
*M3/4
2e-\
4B-\
=5
[2A-\
8.A-\L]
16G-\Jk
=6
[2A-\
8A-\L]
16G-\L
16G-\JJ
=7
2.E-\
=8
2E-\
4A-\
=9
2G-\
4A-\
=10
2.A-\
=11
2A-\
4e-\
=12||
*M2/4
2d-\
=13||
*M3/4
2e-\
4B-\
=14
[2A-\
8.A-\L]
16G-\Jk
=15
[2A-\
8A-\L]
16G-\L
16G-\JJ
=16
2.E-\
=17
4..E-\
16r
4r
=
*-
